!!!COM: Flayfel, Mohammad Salim
!!!CDT: 1899-1986
!!!OTL: National Anthem, Syria
!!!ENC: Davis, Matthew J.
!!Vocal Line Only
**kern
*clefG2
*k[f#c#g#]
*A:
*M4/4
=1-
2r
4r
8r
16r
16e
=2
4a
8.a
16a
4a
8.e
16a
=3
4cc#
8.cc#
16cc#
4cc#
8.a
16cc#
=4
4ee
8.dd
16cc#
4dd
8.cc#
16b
=5
4cc#
8.b
16a
4b
8r
16r
16f#
=6
4b
8.b
16cc#
4dd
8.dd
16dd
=7
4ff#
8.ee
16dd
4..cc#
16b
=8
4a
8.cc#
16cc#
4b
8.a
16g#
=9
4f#
8.g#
16g#
4a
8r
16r
16cc#
=10
4f#
8.f#
16g#
4a
8.a
16b
=11
4cc#
8.dd
16ee
4..cc#
16cc#
=12
4dd
8.cc#
16dd
4b
8.a
16b
=13
4cc#
8.a
16g#
4f#
8r
16r
16c#
=14
4f#
8.f#
16g#
4a
8.a
16b
=15
4cc#
8.dd
16ee
4..cc#
16cc#
=16
4ff#
8.ee
16dd
4cc#
8.b
16b
=17
8.a
16g#
8.a
16b
4cc#
8r
16r
16cc#
=18
4ee
8.dd
16cc#
4b
8.b
16cc#
=19
4dd
8.cc#
16b
4..a
8g#
=20
4f#
8.g#
16a
4b
8.a
16g#
=21
4a
8.a
16a
4a
4r
==|!
*-
